X: 40329
T: Tom Bombadil's
R: polka
M: 2/4
K: Gminor
|:G>F DC|DF G2|G>F DC|B,2 A,2|
G>F DC|DF GA|B>c BA|G2 F2:|
|:G>A Bc|dc BA|c>B AG|F2 D2|
G>A Bc|BA GF|G>F DF|G2 G2:|

